X:1099
T:Skillerdon
C:Joe Buchanan's Scottish Tome - Page 627.2
I:627 2
Z:Carl Allison
R:Folk
L:1/4
M:3/4
K:G
|: B | "Em"A2 G | "Em"A2 B | "Bm"e2d | "Em"B2 A/G/ | "Am"A2 G | "C"E2 E | "Em"E3- | "Bm"E2 B | 
"Em"e2 f | g2 f | e2 B | "Bm"d2 e | "Em"B2 A | "G"G2 A | "Em"B3- | "Bm"B2 B |  
"Em"A2 G | "Em"A2 B | "Bm"e2d | "Em"B2 A/G/ | "Am"A2 G | "C"E2 E | "Em"E3- | "Bm"E2 :|
%
W:Errata: Changed meter to 3/4.

